X: 15404
T: Gleann Na Smól
R: jig
M: 6/8
K: Dmajor
|:F2 A ABF|EFD B,2 D|A,B,D DEF|
[1 Adc cAG|FAB EFD|GFD B,2 D|A,B,D DEF|z FE D2 E:|
[2 ABF ABc|dFc BAF|GB,F EDB,|A,B,D DEF|z FE D2 F||
K:Amaj
|:EB,C EAG|FAE EAD|BcB BAB|cfc ecB|
[1 ceA AGA|FAE EAD|Bed BAG|A3 A2 F:|
[2c(3cde BcA|F(3FGA EAD|Bze edB|A3 =G3|

